src/images/home/search.svg

<svg fill="none" height="100" viewBox="0 0 100 100" width="100" xmlns="http://www.w3.org/2000/svg" xmlns:xlink="http://www.w3.org/1999/xlink"><clipPath id="a"><path d="m0 0h100v100h-100z"/></clipPath><g clip-path="url(#a)"><path d="m0 0h100v100h-100z" fill="#fff"/><path clip-rule="evenodd" d="m36 28c2.2091 0 4-1.7909 4-4s-1.7909-4-4-4-4 1.7909-4 4 1.7909 4 4 4zm0 16c2.2091 0 4-1.7909 4-4s-1.7909-4-4-4-4 1.7909-4 4 1.7909 4 4 4zm4 12c0 2.2091-1.7909 4-4 4s-4-1.7909-4-4 1.7909-4 4-4 4 1.7909 4 4zm-4 20c2.2091 0 4-1.7909 4-4s-1.7909-4-4-4-4 1.7909-4 4 1.7909 4 4 4zm20-52c0 2.2091-1.7909 4-4 4s-4-1.7909-4-4 1.7909-4 4-4 4 1.7909 4 4zm-4 20c2.2091 0 4-1.7909 4-4s-1.7909-4-4-4-4 1.7909-4 4 1.7909 4 4 4zm4 12c0 2.2091-1.7909 4-4 4s-4-1.7909-4-4 1.7909-4 4-4 4 1.7909 4 4zm-4 20c2.2091 0 4-1.7909 4-4s-1.7909-4-4-4-4 1.7909-4 4 1.7909 4 4 4zm20-52c0 2.2091-1.7909 4-4 4s-4-1.7909-4-4 1.7909-4 4-4 4 1.7909 4 4zm-4 20c2.2091 0 4-1.7909 4-4s-1.7909-4-4-4-4 1.7909-4 4 1.7909 4 4 4zm4 12c0 2.2091-1.7909 4-4 4s-4-1.7909-4-4 1.7909-4 4-4 4 1.7909 4 4zm-4 20c2.2091 0 4-1.7909 4-4s-1.7909-4-4-4-4 1.7909-4 4 1.7909 4 4 4zm20-52c0 2.2091-1.7909 4-4 4s-4-1.7909-4-4 1.7909-4 4-4 4 1.7909 4 4zm-4 20c2.2091 0 4-1.7909 4-4s-1.7909-4-4-4-4 1.7909-4 4 1.7909 4 4 4zm4 12c0 2.2091-1.7909 4-4 4s-4-1.7909-4-4 1.7909-4 4-4 4 1.7909 4 4zm-4 20c2.2091 0 4-1.7909 4-4s-1.7909-4-4-4-4 1.7909-4 4 1.7909 4 4 4z" fill="#4fc4f9" fill-rule="evenodd"/><g stroke="#000"><circle cx="32.4268" cy="28.2843" r="19.5" stroke-dasharray="2 2" transform="matrix(.70710678 .70710678 -.70710678 .70710678 29.49761 -14.644931)"/><path d="m18.9922 41.7194-14.84925 14.8492"/><circle cx="81.1422" cy="76.1421" r="9.50001" stroke-dasharray="2 2" transform="matrix(.70710678 -.70710678 .70710678 .70710678 -30.074595 79.677705)"/><path d="m87.8604 82.8596 7.4246 7.4246"/></g></g></svg>

<svg width="100" height="100" viewBox="0 0 100 100" fill="none" xmlns="http://www.w3.org/2000/svg">
<g clip-path="url(#clip0_629_1866)">
<rect width="100" height="100" fill="white"/>
<path fill-rule="evenodd" clip-rule="evenodd" d="M36 28C38.2091 28 40 26.2091 40 24C40 21.7909 38.2091 20 36 20C33.7909 20 32 21.7909 32 24C32 26.2091 33.7909 28 36 28ZM36 44C38.2091 44 40 42.2091 40 40C40 37.7909 38.2091 36 36 36C33.7909 36 32 37.7909 32 40C32 42.2091 33.7909 44 36 44ZM40 56C40 58.2091 38.2091 60 36 60C33.7909 60 32 58.2091 32 56C32 53.7909 33.7909 52 36 52C38.2091 52 40 53.7909 40 56ZM36 76C38.2091 76 40 74.2091 40 72C40 69.7909 38.2091 68 36 68C33.7909 68 32 69.7909 32 72C32 74.2091 33.7909 76 36 76ZM56 24C56 26.2091 54.2091 28 52 28C49.7909 28 48 26.2091 48 24C48 21.7909 49.7909 20 52 20C54.2091 20 56 21.7909 56 24ZM52 44C54.2091 44 56 42.2091 56 40C56 37.7909 54.2091 36 52 36C49.7909 36 48 37.7909 48 40C48 42.2091 49.7909 44 52 44ZM56 56C56 58.2091 54.2091 60 52 60C49.7909 60 48 58.2091 48 56C48 53.7909 49.7909 52 52 52C54.2091 52 56 53.7909 56 56ZM52 76C54.2091 76 56 74.2091 56 72C56 69.7909 54.2091 68 52 68C49.7909 68 48 69.7909 48 72C48 74.2091 49.7909 76 52 76ZM72 24C72 26.2091 70.2091 28 68 28C65.7909 28 64 26.2091 64 24C64 21.7909 65.7909 20 68 20C70.2091 20 72 21.7909 72 24ZM68 44C70.2091 44 72 42.2091 72 40C72 37.7909 70.2091 36 68 36C65.7909 36 64 37.7909 64 40C64 42.2091 65.7909 44 68 44ZM72 56C72 58.2091 70.2091 60 68 60C65.7909 60 64 58.2091 64 56C64 53.7909 65.7909 52 68 52C70.2091 52 72 53.7909 72 56ZM68 76C70.2091 76 72 74.2091 72 72C72 69.7909 70.2091 68 68 68C65.7909 68 64 69.7909 64 72C64 74.2091 65.7909 76 68 76ZM88 24C88 26.2091 86.2091 28 84 28C81.7909 28 80 26.2091 80 24C80 21.7909 81.7909 20 84 20C86.2091 20 88 21.7909 88 24ZM84 44C86.2091 44 88 42.2091 88 40C88 37.7909 86.2091 36 84 36C81.7909 36 80 37.7909 80 40C80 42.2091 81.7909 44 84 44ZM88 56C88 58.2091 86.2091 60 84 60C81.7909 60 80 58.2091 80 56C80 53.7909 81.7909 52 84 52C86.2091 52 88 53.7909 88 56ZM84 76C86.2091 76 88 74.2091 88 72C88 69.7909 86.2091 68 84 68C81.7909 68 80 69.7909 80 72C80 74.2091 81.7909 76 84 76Z" fill="#4FC4F9"/>
<circle cx="32.4268" cy="28.2843" r="19.5" transform="rotate(45 32.4268 28.2843)" stroke="black" stroke-dasharray="2 2"/>
<path d="M18.9922 41.7194L4.14295 56.5686" stroke="black"/>
<circle cx="81.1422" cy="76.1421" r="9.50001" transform="rotate(-45 81.1422 76.1421)" stroke="black" stroke-dasharray="2 2"/>
<path d="M87.8604 82.8596L95.285 90.2842" stroke="black"/>
</g>
<defs>
<clipPath id="clip0_629_1866">
<rect width="100" height="100" fill="white"/>
</clipPath>
</defs>
</svg>
